logo_gal/add_gallery.svg

<svg xmlns="http://www.w3.org/2000/svg" xmlns:xlink="http://www.w3.org/1999/xlink" viewBox="0 0 30 32.5" version="1.1" x="0px" y="0px"><title>Icons / icon-add-photos</title><desc>Created with Sketch.</desc><g stroke="none" stroke-width="1" fill="none" fill-rule="evenodd"><g transform="translate(-402.000000, -340.000000)" fill="#000000" fill-rule="nonzero"><g transform="translate(402.000000, 340.000000)"><path d="M26.2164669,14.347551 L25.6802873,24.2896256 C25.6416214,24.671277 25.4869602,24.9765936 25.216299,25.2055845 C24.9456378,25.4345754 24.6169827,25.5299868 24.2303239,25.4918217 L5.09080726,24.5758627 C4.70414843,24.5376976 4.38515967,24.4041216 4.13383143,24.1751307 C3.88250319,23.9461398 3.7761736,23.6408233 3.81483949,23.2591718 L3.93083656,20.6257899 L3.06085853,20.6830373 C2.71286558,20.7212025 2.41320947,20.6353322 2.16188123,20.4254239 C1.91055299,20.2155156 1.7655581,19.9579047 1.72689222,19.6525835 L0.508922979,6.14218934 C0.470257096,5.83686817 0.557254029,5.56017501 0.769916388,5.31210156 C0.982578747,5.06402811 1.2629022,4.92091096 1.61089515,4.88274581 L15.6637237,3.75808317 C15.4149062,4.31690812 15.235793,4.90446207 15.1268121,5.51973721 L2.82886439,6.54292137 C2.44220555,6.54292137 2.24887904,6.71466195 2.24887904,7.05814827 L2.24887904,7.1153957 L3.1768556,17.3054388 L4.22082923,15.8742529 L4.62681898,8.20309693 C4.66548486,7.85961061 4.81047975,7.56383516 5.06180799,7.31576171 C5.31313623,7.06768826 5.63212499,6.9436534 6.01878382,6.9436534 L15.008365,7.38933738 C15.0373261,8.05788388 15.1414582,8.69744177 15.3202891,9.30689856 L7.06275746,8.94731355 C6.67609862,8.94731355 6.4441068,9.11905413 6.36677503,9.46254045 L6.36677503,9.51978788 L6.19277943,13.1263762 L5.78678968,20.4540476 L5.78678968,20.8547796 L6.13478089,20.4540476 L12.0506315,14.2140774 C12.2826268,13.9850865 12.5532839,13.8705928 12.862611,13.8705928 C13.2106039,13.8705928 13.4812611,14.0041688 13.6745905,14.2713248 L16.1685275,17.076449 L16.3425231,17.2481913 C16.4971866,17.4008519 16.6905131,17.4771811 16.9225084,17.4771811 C17.0385061,17.4771811 17.2125,17.4199342 17.4444953,17.3054388 L18.4304704,16.6184696 C18.6237998,16.465809 18.8364589,16.3894798 19.0684542,16.3894798 C19.3777813,16.3894798 19.5904405,16.4848913 19.7064381,16.675717 L21.2723986,18.5648823 L23.9983297,21.7134911 L24.3471857,14.8955965 C25.0015485,14.7910906 25.6250386,14.6082405 26.2164669,14.347551 L26.2164669,14.347551 Z M18.40625,2.40625 C19.6770897,1.13541031 21.2083244,0.5 23,0.5 C24.7916756,0.5 26.3229103,1.13541031 27.59375,2.40625 C28.8645897,3.67708969 29.5,5.20832438 29.5,7 C29.5,8.79167562 28.8645897,10.3229103 27.59375,11.59375 C26.3229103,12.8645897 24.7916756,13.5 23,13.5 C21.2083244,13.5 19.6770897,12.8645897 18.40625,11.59375 C17.1354103,10.3229103 16.5,8.79167562 16.5,7 C16.5,5.20832438 17.1354103,3.67708969 18.40625,2.40625 Z M26.34375,7.65625 L26.34375,6.34375 L23.65625,6.34375 L23.65625,3.65625 L22.34375,3.65625 L22.34375,6.34375 L19.65625,6.34375 L19.65625,7.65625 L22.34375,7.65625 L22.34375,10.34375 L23.65625,10.34375 L23.65625,7.65625 L26.34375,7.65625 Z"/></g></g></g><text x="0" y="41" fill="#000000" font-size="5px" font-weight="bold" font-family="'Helvetica Neue', Helvetica, Arial-Unicode, Arial, Sans-serif">Created by Alain W.</text><text x="0" y="46" fill="#000000" font-size="5px" font-weight="bold" font-family="'Helvetica Neue', Helvetica, Arial-Unicode, Arial, Sans-serif">from the Noun Project</text></svg>

<?xml version="1.0" encoding="utf-8"?>
<!-- Generator: Adobe Illustrator 22.1.0, SVG Export Plug-In . SVG Version: 6.00 Build 0)  -->
<svg version="1.1" id="Layer_1" xmlns="http://www.w3.org/2000/svg" xmlns:xlink="http://www.w3.org/1999/xlink" x="0px" y="0px"
	 viewBox="0 0 30 32.5" style="enable-background:new 0 0 30 32.5;" xml:space="preserve">
<style type="text/css">
	.st0{fill:#DD1919;}
</style>
<title>Icons / icon-add-photos</title>
<desc>Created with Sketch.</desc>
<g>
	<g transform="translate(-402.000000, -340.000000)">
		<g transform="translate(402.000000, 340.000000)">
			<path class="st0" d="M26.2,14.3l-0.5,9.9c0,0.4-0.2,0.7-0.5,0.9c-0.3,0.2-0.6,0.3-1,0.3L5.1,24.6c-0.4,0-0.7-0.2-1-0.4
				s-0.4-0.5-0.3-0.9l0.1-2.6l-0.9,0.1c-0.3,0-0.6,0-0.9-0.3c-0.3-0.2-0.4-0.5-0.4-0.8L0.5,6.1c0-0.3,0-0.6,0.3-0.8
				C1,5.1,1.3,4.9,1.6,4.9l14.1-1.1c-0.2,0.6-0.4,1.1-0.5,1.8l-12.3,1c-0.4,0-0.6,0.2-0.6,0.5v0.1l0.9,10.2l1-1.4l0.4-7.7
				c0-0.3,0.2-0.6,0.4-0.9c0.3-0.2,0.6-0.4,1-0.4l9,0.4c0,0.7,0.1,1.3,0.3,1.9L7.1,8.9c-0.4,0-0.6,0.2-0.7,0.5v0.1l-0.2,3.6
				l-0.4,7.3v0.4l0.3-0.4l5.9-6.2c0.2-0.2,0.5-0.3,0.8-0.3c0.3,0,0.6,0.1,0.8,0.4l2.5,2.8l0.2,0.2c0.2,0.2,0.3,0.2,0.6,0.2
				c0.1,0,0.3-0.1,0.5-0.2l1-0.7c0.2-0.2,0.4-0.2,0.6-0.2c0.3,0,0.5,0.1,0.6,0.3l1.6,1.9l2.7,3.1l0.3-6.8
				C25,14.8,25.6,14.6,26.2,14.3L26.2,14.3z M18.4,2.4c1.3-1.3,2.8-1.9,4.6-1.9s3.3,0.6,4.6,1.9s1.9,2.8,1.9,4.6s-0.6,3.3-1.9,4.6
				s-2.8,1.9-4.6,1.9s-3.3-0.6-4.6-1.9S16.5,8.8,16.5,7S17.1,3.7,18.4,2.4z M26.3,7.7V6.3h-2.7V3.7h-1.3v2.7h-2.7v1.3h2.7v2.7h1.3
				V7.7H26.3z"/>
		</g>
	</g>
</g>
</svg>
